X:39
T:The Blue Ball
D:"Rubai" by Flook
Z:Transcribed by Lionel Gueganton
R:jig
L:1/8
M:6/8
K:Bmin
|: B,FE DCA, | B,EF A,B,D | B,EF A,B,D | CCC B,A,F     | 
   B,FE DCA, | B,EF A,B,D | CDC EFA,   |1 CB,A, B,2A, :|2 CB,A, B,3
| F2B, DCB,  | CCB, FA,B, | E2D2CB,    | CDC CB,A,     |
  F2B, DCB,  | CCB, FA,B, | CCB, FA,B, | CB,A, B,3     |
  F2B, DCB,  | CCB, FA,B, | E2D2FD     | ^GEG AGE      |
  F2B, DCB,  | CCB, FA,B, | CCB, FA,B, | CB,A, B,3     |

